wp-content/themes/sd-accesslasers/public/images/about/icons/about-6.svg

<?xml version="1.0" encoding="UTF-8"?>
<svg width="120px" height="120px" viewBox="0 0 120 120" version="1.1" xmlns="http://www.w3.org/2000/svg" xmlns:xlink="http://www.w3.org/1999/xlink">
    <!-- Generator: Sketch 55 (78076) - https://sketchapp.com -->
    <title>6</title>
    <desc>Created with Sketch.</desc>
    <g id="About" stroke="none" stroke-width="1" fill="none" fill-rule="evenodd">
        <g id="AL_About-Copy" transform="translate(-1456.000000, -2696.000000)">
            <g id="Core-Values" transform="translate(343.000000, 1685.000000)">
                <g id="Icons" transform="translate(0.000000, 361.000000)">
                    <g id="3" transform="translate(1113.000000, 0.000000)">
                        <g id="icon"></g>
                    </g>
                    <g id="6" transform="translate(1113.000000, 650.000000)">
                        <g id="icon">
                            <rect id="Icon-120" x="0" y="0" width="120" height="120"></rect>
                            <g id="team-(1)" transform="translate(10.000000, 10.000000)" fill="#596975" fill-rule="nonzero">
                                <path d="M90.7491827,81.5525968 C92.3439072,80.0812688 93.3617328,77.9921718 93.3617328,75.6562815 L93.3617328,72.4369656 C93.3617328,67.9994026 89.751006,64.3886759 85.3134431,64.3886759 C81.4276282,64.3886759 78.1760877,67.1592052 77.4270624,70.8273076 L72.1398704,70.8273076 C71.4733714,68.9582809 69.7025905,67.6079918 67.6072056,67.6079918 C65.511035,67.6079918 63.7402539,68.9582809 63.0737549,70.8273076 L57.7865632,70.8273076 C57.144429,67.6787286 54.6584193,65.1935048 51.5106262,64.5513706 L51.5106262,60.9406439 C54.2803698,60.2214851 56.3396,57.7228998 56.3396,54.7307282 L57.9492579,54.7307282 C58.8389714,54.7307282 59.5589159,54.0115694 59.5589159,53.1210702 L59.5589159,48.2920964 L61.1685738,48.2920964 C62.0575634,48.2920964 62.7782318,47.571428 62.7782318,46.6824384 L62.7782318,46.6824384 C62.7782318,45.7934489 62.0575634,45.0727805 61.1685738,45.0727805 L59.5589159,45.0727805 L59.5589159,45.0554891 C59.5589159,41.9760753 61.0184545,38.9493209 63.5634117,36.7572624 C68.1786028,32.7763457 70.8265215,27.0073565 70.8265215,20.9279113 C70.8265215,15.1785714 68.5417191,9.81828471 64.3941775,5.83422414 C60.248994,1.85016338 54.7700264,-0.229502012 49.0379779,0.0204350101 C38.1727867,0.458218109 29.1726924,9.66659336 28.978559,20.5467179 C28.8669517,26.7047598 31.4637827,32.5704225 36.1025529,36.6401533 C38.6553698,38.8770121 40.1392732,41.937563 40.2265153,45.0727805 L38.6333626,45.0727805 C37.744373,45.0727805 37.0237046,45.7934489 37.0237046,46.6824384 L37.0237046,46.6824384 C37.0237046,47.571428 37.744373,48.2920964 38.6333626,48.2920964 L40.2430205,48.2920964 L40.2430205,53.1210702 C40.2430205,54.0115694 40.9621793,54.7307282 41.8526785,54.7307282 L43.4623364,54.7307282 C43.4623364,57.7228998 45.5207809,60.2214851 48.2913103,60.9406439 L48.2913103,64.5513706 C45.1427314,65.1935048 42.6575074,67.6787286 42.0145875,70.8273076 L36.7273956,70.8273076 C36.0608966,68.9582809 34.2901157,67.6079918 32.1947308,67.6079918 C30.0985602,67.6079918 28.3277791,68.9582809 27.6612801,70.8273076 L22.3740883,70.8273076 C21.6250628,67.1592052 18.3750944,64.3886759 14.4884934,64.3886759 C10.0501447,64.3886759 6.44020362,67.9994026 6.44020362,72.4369656 L6.44020362,75.6562815 C6.44020362,77.9921718 7.45724346,80.0812688 9.05196801,81.5525968 C3.75141469,83.7077151 0.00157193159,88.9068789 0.00157193159,94.9721769 L0.00157193159,98.1914928 C0.00157193159,99.081992 0.720730584,99.8011507 1.61122978,99.8011507 L27.3657569,99.8011507 C28.2554704,99.8011507 28.9754149,99.081992 28.9754149,98.1914928 L28.9754149,94.9721769 C28.9754149,88.9068789 25.2247863,83.7077151 19.924233,81.5525968 C21.5189575,80.0812688 22.5367831,77.9921718 22.5367831,75.6562815 L22.5367831,74.0466235 L27.6612801,74.0466235 C28.3277791,75.9156501 30.0985602,77.2659394 32.1947308,77.2659394 C34.2901157,77.2659394 36.0608966,75.9156501 36.7273956,74.0466235 L41.8526785,74.0466235 L41.8526785,75.6562815 C41.8526785,77.9921718 42.8697183,80.0812688 44.4644429,81.5525968 C39.1638895,83.7077151 35.4140467,88.9068789 35.4140467,94.9721769 L35.4140467,98.1914928 C35.4140467,99.081992 36.1332054,99.8011507 37.0237046,99.8011507 L62.7782318,99.8011507 C63.6679453,99.8011507 64.3878897,99.081992 64.3878897,98.1914928 L64.3878897,94.9721769 C64.3878897,88.9068789 60.6372612,83.7077151 55.3367078,81.5525968 C56.9314324,80.0812688 57.9492579,77.9921718 57.9492579,75.6562815 L57.9492579,74.0466235 L63.0737549,74.0466235 C63.7402539,75.9156501 65.511035,77.2659394 67.6072056,77.2659394 C69.7025905,77.2659394 71.4733714,75.9156501 72.1398704,74.0466235 L77.2651533,74.0466235 L77.2651533,75.6562815 C77.2651533,77.9921718 78.2821932,80.0812688 79.8769177,81.5525968 C74.5763644,83.7077151 70.8265215,88.9068789 70.8265215,94.9721769 L70.8265215,98.1914928 C70.8265215,99.081992 71.5456803,99.8011507 72.4361795,99.8011507 L98.1907066,99.8011507 C99.0804201,99.8011507 99.8003646,99.081992 99.8003646,98.1914928 L99.8003646,94.9721769 C99.8003646,88.9068789 96.049736,83.7077151 90.7491827,81.5525968 Z M25.756099,94.9721769 L25.756099,96.5818348 L22.5367831,96.5818348 L22.5367831,94.9721769 C22.5367831,94.0831873 21.8161147,93.3625189 20.9271252,93.3625189 L20.9271252,93.3625189 C20.0381356,93.3625189 19.3174672,94.0831873 19.3174672,94.9721769 L19.3174672,96.5818348 L9.65951952,96.5818348 L9.65951952,94.9721769 C9.65951952,94.0831873 8.93885111,93.3625189 8.04986157,93.3625189 L8.04986157,93.3625189 C7.16087203,93.3625189 6.44020362,94.0831873 6.44020362,94.9721769 L6.44020362,96.5818348 L3.22088773,96.5818348 L3.22088773,94.9721769 C3.22088773,88.7606891 8.27621972,83.7045712 14.4884934,83.7045712 C20.6999811,83.7045712 25.756099,88.7606891 25.756099,94.9721769 Z M9.65951952,75.6562815 L9.65951952,72.4369656 C9.65951952,69.7748994 11.8256414,67.6079918 14.4884934,67.6079918 C17.1505596,67.6079918 19.3174672,69.7748994 19.3174672,72.4369656 L19.3174672,75.6562815 C19.3174672,78.3183477 17.1505596,80.4852553 14.4884934,80.4852553 C11.8256414,80.4852553 9.65951952,78.3183477 9.65951952,75.6562815 Z M32.1947308,74.0466235 C31.3058036,74.0466235 30.5850728,73.325893 30.5850728,72.4369656 C30.5850728,71.5488241 31.3058036,70.8273076 32.1947308,70.8273076 C33.0828722,70.8273076 33.8043887,71.5488241 33.8043887,72.4369656 C33.8043887,73.325893 33.0828722,74.0466235 32.1947308,74.0466235 Z M32.1978748,20.6025213 C32.3637135,11.3972899 39.9757924,3.60679698 49.1668763,3.23582113 C54.0775905,3.05740684 58.6574133,4.78810362 62.1628207,8.15675292 C65.67373,11.5261883 67.6072056,16.063569 67.6072056,20.9279113 C67.6072056,26.0704853 65.3664173,30.951333 61.4609533,34.3168386 C58.2062688,37.1243082 56.3396,41.037632 56.3396,45.0554891 L56.3396,45.0727805 L43.4458312,45.0727805 C43.3585891,41.0116952 41.4754149,37.0677187 38.2238744,34.2185928 C34.2995473,30.7760626 32.1027728,25.8134746 32.1978748,20.6025213 Z M56.3396,48.2920964 L56.3396,51.5114123 L43.4623364,51.5114123 L43.4623364,48.2920964 L56.3396,48.2920964 Z M46.6816523,54.7307282 L53.1202841,54.7307282 C53.1202841,56.5062249 51.6756791,57.9500441 49.9009682,57.9500441 C48.1254716,57.9500441 46.6816523,56.5062249 46.6816523,54.7307282 Z M61.1685738,94.9721769 L61.1685738,96.5818348 L57.9492579,96.5818348 L57.9492579,94.9721769 C57.9492579,94.0831873 57.2285895,93.3625189 56.3396,93.3625189 L56.3396,93.3625189 C55.4506105,93.3625189 54.7299421,94.0831873 54.7299421,94.9721769 L54.7299421,96.5818348 L45.0719944,96.5818348 L45.0719944,94.9721769 C45.0719944,94.0831873 44.351326,93.3625189 43.4623364,93.3625189 L43.4623364,93.3625189 C42.5733469,93.3625189 41.8526785,94.0831873 41.8526785,94.9721769 L41.8526785,96.5818348 L38.6333626,96.5818348 L38.6333626,94.9721769 C38.6333626,88.7606891 43.6886946,83.7045712 49.9009682,83.7045712 C56.1124559,83.7045712 61.1685738,88.7606891 61.1685738,94.9721769 Z M45.0719944,75.6562815 L45.0719944,72.4369656 C45.0719944,69.7748994 47.2381163,67.6079918 49.9009682,67.6079918 C52.5630344,67.6079918 54.7299421,69.7748994 54.7299421,72.4369656 L54.7299421,75.6562815 C54.7299421,78.3183477 52.5630344,80.4852553 49.9009682,80.4852553 C47.2381163,80.4852553 45.0719944,78.3183477 45.0719944,75.6562815 Z M67.6072056,74.0466235 C66.7182785,74.0466235 65.9975477,73.325893 65.9975477,72.4369656 C65.9975477,71.5488241 66.7182785,70.8273076 67.6072056,70.8273076 C68.4953471,70.8273076 69.2168636,71.5488241 69.2168636,72.4369656 C69.2168636,73.325893 68.4953471,74.0466235 67.6072056,74.0466235 Z M80.4844692,75.6562815 L80.4844692,72.4369656 C80.4844692,69.7748994 82.6505911,67.6079918 85.3134431,67.6079918 C87.9755093,67.6079918 90.1424169,69.7748994 90.1424169,72.4369656 L90.1424169,75.6562815 C90.1424169,78.3183477 87.9755093,80.4852553 85.3134431,80.4852553 C82.6505911,80.4852553 80.4844692,78.3183477 80.4844692,75.6562815 Z M96.5810487,96.5818348 L93.3617328,96.5818348 L93.3617328,94.9721769 C93.3617328,94.0831873 92.6410644,93.3625189 91.7520748,93.3625189 L91.7520748,93.3625189 C90.8630853,93.3625189 90.1424169,94.0831873 90.1424169,94.9721769 L90.1424169,96.5818348 L80.4844692,96.5818348 L80.4844692,94.9721769 C80.4844692,94.0831873 79.7638008,93.3625189 78.8748113,93.3625189 L78.8748113,93.3625189 C77.9858217,93.3625189 77.2651533,94.0831873 77.2651533,94.9721769 L77.2651533,96.5818348 L74.0458374,96.5818348 L74.0458374,94.9721769 C74.0458374,88.7606891 79.1011694,83.7045712 85.3134431,83.7045712 C91.5249308,83.7045712 96.5810487,88.7606891 96.5810487,94.9721769 L96.5810487,96.5818348 Z" id="Shape"></path>
                                <path d="M48.2913103,38.6341487 L51.5106262,38.6341487 C52.3996157,38.6341487 53.1202841,39.3548171 53.1202841,40.2438066 L53.1202841,40.2438066 C53.1202841,41.1327962 52.3996157,41.8534646 51.5106262,41.8534646 L48.2913103,41.8534646 C47.4023207,41.8534646 46.6816523,41.1327962 46.6816523,40.2438066 L46.6816523,40.2438066 C46.6816523,39.3548171 47.4023207,38.6341487 48.2913103,38.6341487 Z" id="Path"></path>
                                <path d="M48.2913103,28.813506 L48.2913103,32.1955169 L51.5106262,32.1955169 L51.5106262,28.813506 C52.5355256,28.604439 53.4889022,28.1957368 54.3322435,27.6353433 L56.8111795,30.1142795 L59.0865505,27.8381225 L56.6084004,25.3591863 C57.168008,24.5158451 57.5767103,23.5632545 57.7865632,22.5375692 L61.1685738,22.5375692 L61.1685738,19.3182533 L57.7865632,19.3182533 C57.5767103,18.2925678 57.168008,17.3399775 56.6084004,16.496636 L59.0865505,14.0177 L56.8111795,11.7415431 L54.3322435,14.2204791 C53.4889022,13.6600855 52.5355256,13.2513833 51.5106262,13.0423163 L51.5106262,9.66030563 L48.2913103,9.66030563 L48.2913103,13.0423163 C47.2656249,13.2513833 46.3130344,13.6600855 45.4689072,14.2204791 L42.989971,11.7415431 L40.7146,14.0177 L43.1935362,16.496636 C42.6331427,17.3399775 42.2244404,18.2925678 42.0145875,19.3182533 L38.6333626,19.3182533 L38.6333626,22.5375692 L42.0145875,22.5375692 C42.2244404,23.5632545 42.6331427,24.5158451 43.1935362,25.3591863 L40.7146,27.8381225 L42.989971,30.1142795 L45.4689072,27.6353433 C46.3130344,28.1957368 47.2656249,28.604439 48.2913103,28.813506 L48.2913103,28.813506 Z M49.9009682,16.0989374 C52.5630344,16.0989374 54.7299421,18.2658451 54.7299421,20.9279113 C54.7299421,23.5899775 52.5630344,25.7568851 49.9009682,25.7568851 C47.2381163,25.7568851 45.0719944,23.5899775 45.0719944,20.9279113 C45.0719944,18.2658451 47.2381163,16.0989374 49.9009682,16.0989374 Z" id="Shape"></path>
                            </g>
                        </g>
                    </g>
                </g>
            </g>
        </g>
    </g>
</svg>

<svg width="120" height="120" viewBox="0 0 120 120" version="1.1" xmlns="http://www.w3.org/2000/svg"><g id="About" stroke="none" stroke-width="1" fill="none" fill-rule="evenodd"><g id="AL_About-Copy" transform="translate(-1456 -2696)"><g id="Core-Values" transform="translate(343 1685)"><g id="Icons" transform="translate(0 361)"><g id="6" transform="translate(1113 650)"><g id="icon"><path id="Icon-120" d="M0 0h120v120H0z"/><g id="team-(1)" transform="translate(10 10)" fill="#596975" fill-rule="nonzero"><path d="M90.75 81.553c1.594-1.472 2.612-3.56 2.612-5.897v-3.219c0-4.438-3.611-8.048-8.049-8.048-3.885 0-7.137 2.77-7.886 6.438H72.14c-.667-1.869-2.437-3.219-4.533-3.219-2.096 0-3.867 1.35-4.533 3.22h-5.287a8.074 8.074 0 0 0-6.276-6.277v-3.61c2.77-.72 4.829-3.218 4.829-6.21h1.61c.889 0 1.609-.72 1.609-1.61v-4.829h1.61a1.61 1.61 0 1 0 0-3.22h-1.61v-.017c0-3.079 1.46-6.106 4.004-8.298a20.893 20.893 0 0 0 7.264-15.83c0-5.748-2.285-11.109-6.433-15.093C60.25 1.85 54.77-.23 49.038.02c-10.865.438-19.865 9.647-20.06 20.527a20.87 20.87 0 0 0 7.125 16.093c2.552 2.237 4.036 5.298 4.124 8.433h-1.594a1.61 1.61 0 1 0 0 3.22h1.61v4.828c0 .89.72 1.61 1.61 1.61h1.61c0 2.992 2.058 5.49 4.828 6.21v3.61a8.074 8.074 0 0 0-6.276 6.276h-5.288c-.666-1.869-2.437-3.219-4.532-3.219-2.096 0-3.867 1.35-4.534 3.22h-5.287c-.749-3.669-3.999-6.44-7.886-6.44-4.438 0-8.048 3.611-8.048 8.049v3.22c0 2.335 1.017 4.424 2.612 5.896-5.3 2.155-9.05 7.354-9.05 13.42v3.218c0 .891.719 1.61 1.61 1.61h25.754c.89 0 1.61-.719 1.61-1.61v-3.219c0-6.065-3.751-11.264-9.052-13.42 1.595-1.47 2.613-3.56 2.613-5.896v-1.61h5.124c.667 1.87 2.438 3.22 4.534 3.22 2.095 0 3.866-1.35 4.532-3.22h5.126v1.61c0 2.336 1.017 4.425 2.611 5.897-5.3 2.155-9.05 7.354-9.05 13.42v3.218c0 .891.72 1.61 1.61 1.61h25.754c.89 0 1.61-.719 1.61-1.61v-3.219c0-6.065-3.75-11.264-9.051-13.42 1.594-1.47 2.612-3.56 2.612-5.896v-1.61h5.125c.666 1.87 2.437 3.22 4.533 3.22 2.096 0 3.866-1.35 4.533-3.22h5.125v1.61c0 2.336 1.017 4.425 2.612 5.897-5.3 2.155-9.05 7.354-9.05 13.42v3.218c0 .891.719 1.61 1.61 1.61H98.19c.89 0 1.61-.719 1.61-1.61v-3.219c0-6.065-3.751-11.264-9.052-13.42zm-64.994 13.42v1.609h-3.22v-1.61a1.61 1.61 0 0 0-3.22 0l.001 1.61H9.66v-1.61a1.61 1.61 0 1 0-3.22 0v1.61H3.22v-1.61c0-6.211 5.056-11.267 11.268-11.267 6.212 0 11.268 5.056 11.268 11.267zM9.66 75.655v-3.219a4.835 4.835 0 0 1 4.828-4.829 4.835 4.835 0 0 1 4.83 4.829v3.22a4.835 4.835 0 0 1-4.83 4.828 4.835 4.835 0 0 1-4.828-4.829zm22.535-1.61a1.61 1.61 0 1 1 0-3.219 1.61 1.61 0 0 1 0 3.22zm.003-53.443c.166-9.206 7.778-16.996 16.969-17.367 4.91-.179 9.49 1.552 12.996 4.92a17.552 17.552 0 0 1 5.444 12.772c0 5.142-2.24 10.023-6.146 13.389-3.255 2.807-5.121 6.72-5.121 10.738v.018H43.446c-.087-4.061-1.97-8.005-5.222-10.854a17.653 17.653 0 0 1-6.026-13.616zm24.142 27.69v3.218H43.462v-3.219H56.34zm-9.658 6.438h6.438a3.223 3.223 0 0 1-3.219 3.219 3.222 3.222 0 0 1-3.22-3.22zm14.487 40.241v1.61h-3.22v-1.61a1.61 1.61 0 1 0-3.22 0v1.61h-9.657v-1.61a1.61 1.61 0 1 0-3.22 0v1.61h-3.219v-1.61c0-6.211 5.056-11.267 11.268-11.267 6.211 0 11.268 5.056 11.268 11.267zM45.072 75.656v-3.219a4.835 4.835 0 0 1 4.829-4.829 4.835 4.835 0 0 1 4.829 4.829v3.22a4.835 4.835 0 0 1-4.829 4.828 4.835 4.835 0 0 1-4.829-4.829zm22.535-1.61a1.61 1.61 0 1 1 0-3.219 1.61 1.61 0 0 1 0 3.22zm12.877 1.61v-3.219a4.835 4.835 0 0 1 4.83-4.829 4.835 4.835 0 0 1 4.828 4.829v3.22a4.835 4.835 0 0 1-4.829 4.828 4.835 4.835 0 0 1-4.829-4.829zm16.097 20.926h-3.22v-1.61a1.61 1.61 0 0 0-3.22 0l.001 1.61h-9.658v-1.61a1.61 1.61 0 1 0-3.22 0l.001 1.61h-3.22v-1.61c0-6.211 5.056-11.267 11.268-11.267 6.212 0 11.268 5.056 11.268 11.267v1.61z" id="Shape"/><path d="M48.291 38.634h3.22a1.61 1.61 0 1 1 0 3.22h-3.22a1.61 1.61 0 1 1 0-3.22z" id="Path"/><path d="M48.291 28.814v3.382h3.22v-3.382a7.98 7.98 0 0 0 2.821-1.179l2.48 2.48 2.275-2.277-2.479-2.479a8.003 8.003 0 0 0 1.179-2.821h3.382v-3.22h-3.382a8.003 8.003 0 0 0-1.179-2.821l2.479-2.48-2.276-2.275-2.479 2.478a7.98 7.98 0 0 0-2.821-1.178V9.66h-3.22v3.382a7.984 7.984 0 0 0-2.822 1.178l-2.479-2.478-2.275 2.276 2.479 2.479a7.99 7.99 0 0 0-1.18 2.821h-3.38v3.22h3.38a7.99 7.99 0 0 0 1.18 2.821l-2.48 2.48 2.276 2.275 2.479-2.479c.844.56 1.797.97 2.822 1.179zm1.61-12.715a4.835 4.835 0 0 1 4.829 4.829 4.835 4.835 0 0 1-4.829 4.829 4.835 4.835 0 0 1-4.829-4.83 4.835 4.835 0 0 1 4.829-4.828z" id="Shape"/></g></g></g></g></g></g></g></svg>
